assets/images/icon_dart.svg

<?xml version="1.0" encoding="UTF-8"?>
<!DOCTYPE svg PUBLIC "-//W3C//DTD SVG 1.1//EN" "http://www.w3.org/Graphics/SVG/1.1/DTD/svg11.dtd">
<!-- Creator: CorelDRAW 2019 (64 Bit) -->
<svg xmlns="http://www.w3.org/2000/svg" xml:space="preserve" width="4.1104mm" height="4.1131mm" version="1.1" style="shape-rendering:geometricPrecision; text-rendering:geometricPrecision; image-rendering:optimizeQuality; fill-rule:evenodd; clip-rule:evenodd"
viewBox="0 0 1.24 1.24"
 xmlns:xlink="http://www.w3.org/1999/xlink">
 <defs>
  <style type="text/css">
   <![CDATA[
    .fil0 {fill:#02589B}
    .fil4 {fill:#085087}
    .fil1 {fill:#2AB6F6}
    .fil5 {fill:#3479AE}
    .fil2 {fill:#40C4FF}
    .fil3 {fill:#52C0F3}
   ]]>
  </style>
 </defs>
 <g id="Camada_x0020_1">
  <metadata id="CorelCorpID_0Corel-Layer"/>
  <g id="_1486664122496">
   <path class="fil0" d="M1.01 1.01c0,-0 0.19,0 0.22,-0l-0 -0.5c-0,-0.01 -0.22,-0.22 -0.24,-0.24 -0,-0 -0.01,-0.01 -0.02,-0.02 -0,0 -0.01,-0.01 -0.01,-0.01 -0.01,-0 -0.01,-0.01 -0.02,-0.01 -0.01,-0 -0.03,-0.01 -0.04,-0.01 -0.03,-0 -0.07,-0 -0.1,-0l-0.39 0c-0.03,0 -0.06,-0 -0.1,-0 -0,0 -0.09,-0 -0.09,0l0.79 0.79z"/>
   <path class="fil1" d="M0.25 0.98c0,0 0.03,0.03 0.04,0.04l0.73 -0 -0.01 -0.01 -0.79 -0.79 -0 0c-0,0.2 0,0.4 0,0.59 0,0.03 -0,0.07 0,0.1 0.01,0.05 0.02,0.06 0.03,0.07z"/>
   <path class="fil2" d="M1.02 1.24c0,-0.01 0,-0.21 0,-0.22l-0.73 0c0,0.01 0.19,0.19 0.21,0.22 0,0 0,0 0.01,0l0.45 -0c0.02,0 0.04,0 0.06,-0z"/>
   <path class="fil0" d="M0.23 0.97c-0,-0.01 -0.01,-0.01 -0.02,-0.03 -0.01,-0.03 -0.01,-0.11 -0.01,-0.14 0,-0.03 -0,-0.57 0,-0.58 -0,0 -0.1,0.2 -0.1,0.2 -0.03,0.07 -0.07,0.13 -0.1,0.2 -0.02,0.04 -0.02,0.07 -0,0.12 0.01,0.03 0.04,0.06 0.07,0.08l0.15 0.15c0,0 0,0 0.01,0z"/>
   <path class="fil2" d="M0.21 0.21l0.01 0c0,0 0.01,-0 0.01,-0l0.57 -0c0.01,0 0.07,-0 0.08,0 0.02,0 0.04,0 0.06,0.01 0,0 0.01,0.01 0.01,0.01 -0.02,-0.03 -0.05,-0.05 -0.07,-0.07 -0.03,-0.03 -0.05,-0.05 -0.07,-0.07 -0.01,-0.01 -0.02,-0.02 -0.04,-0.04 -0.01,-0.01 -0.02,-0.02 -0.04,-0.03 -0.02,-0.01 -0.03,-0.02 -0.06,-0.02 -0.02,0 -0.05,0 -0.06,0.01 -0.1,0.05 -0.2,0.1 -0.3,0.15 -0.03,0.02 -0.07,0.03 -0.1,0.05z"/>
   <path class="fil3" d="M0.21 0.21c-0,0.01 -0,0.55 -0,0.58 0,0.03 -0,0.11 0.01,0.14 0.01,0.02 0.01,0.02 0.02,0.03l0.02 0.02c-0,-0.01 -0.02,-0.02 -0.03,-0.07 -0,-0.03 -0,-0.07 -0,-0.1 0,-0.2 -0,-0.4 -0,-0.59 -0,-0 -0,-0 -0,-0 -0,-0 -0,-0 -0,-0.01l0.67 0c-0.01,-0 -0.07,-0 -0.08,-0l-0.57 0c-0,0 -0.01,0 -0.01,0l-0.01 -0 -0 0z"/>
   <path class="fil4" d="M1.01 1.01l0.01 0.01c0,0.01 0,0.21 -0,0.22 0,-0 0,-0 0,-0.01l0 -0.21 0.22 0 0 -0.49c0,-0.01 0,-0.02 -0.01,-0.02l0 0.5c-0.03,0 -0.21,-0 -0.22,0z"/>
   <path class="fil5" d="M0.22 0.22l0 0c0,-0 0.09,-0 0.09,-0 0.03,0 0.06,0 0.1,0l0.39 0c0.03,0 0.07,-0 0.1,0 0.01,0 0.03,0 0.04,0.01 0.01,0 0.01,0 0.02,0.01 0,0 0.01,0.01 0.01,0.01l-0.01 -0.01c-0,0 -0.01,-0.01 -0.01,-0.01 -0.02,-0.01 -0.04,-0.01 -0.06,-0.01l-0.67 -0c0,0 0,0 0,0.01 0,0 0,0 0,0z"/>
  </g>
 </g>
</svg>

<svg xmlns="http://www.w3.org/2000/svg" xml:space="preserve" width="15.535" height="15.546" style="shape-rendering:geometricPrecision;text-rendering:geometricPrecision;image-rendering:optimizeQuality;fill-rule:evenodd;clip-rule:evenodd" viewBox="0 0 1.24 1.24">
    <g id="Camada_x0020_1">
        <g id="_1486664122496">
            <path class="fil0" style="fill:#02589b;" d="M1.01 1.01h.22v-.5C1.23.5 1.01.29.99.27L.97.25.96.24C.95.24.95.23.94.23S.91.22.9.22H.22l.79.79z" />
            <path d="m.25.98.04.04h.73l-.01-.01L.22.22v.69c.01.05.02.06.03.07z" style="fill:#2ab6f6" />
            <path  style="fill:#40c4ff;" d="M1.02 1.24v-.22H.29c0 .01.19.19.21.22h.52z" />
            <path class="fil0" style="fill:#02589b;" d="M.23.97C.23.96.22.96.21.94.2.91.2.83.2.8V.22l-.1.2C.07.49.03.55 0 .62c-.02.04-.02.07 0 .12.01.03.04.06.07.08l.15.15h.01z" />
            <path  style="fill:#40c4ff;" d="M.21.21H.88C.9.21.92.21.94.22l.01.01C.93.2.9.18.88.16L.81.09.77.05A.138.138 0 0 0 .73.02C.71.01.7 0 .67 0 .65 0 .62 0 .61.01l-.3.15C.28.18.24.19.21.21z" />
            <path d="M.21.21v.58c0 .03 0 .11.01.14.01.02.01.02.02.03l.02.02C.26.97.24.96.23.91v-.7H.9.23z" style="fill:#52c0f3" />
            <path d="m1.01 1.01.01.01v.22-.22h.22V.53c0-.01 0-.02-.01-.02v.5h-.22z" style="fill:#085087" />
            <path d="M.22.22H.9c.01 0 .03 0 .04.01.01 0 .01 0 .02.01l.01.01L.96.24.95.23C.93.22.91.22.89.22H.22v.01z" style="fill:#3479ae" />
        </g>
    </g>
</svg>
